X: 23900
T: Loch Leven Castle
R: hornpipe
M: 4/4
K: Adorian
(3BcB|A2AB AGEG|AGAB cBcd|(3efg fa gedc|B2G2 G2 (3BcB|
A2AB AGEG|AGAB cBcd|(3efg fa gedB|c2A2 A2:|
(3efg|a2ab ageg|agab a2ge|dega gedc|B2G2 GBcB|
A2AB AGEG|AGAB cBcd|(3efg fa gedB|c2A2 A2:|

